dist/projects/justice/icons/romance.svg

<svg width="80" height="80" viewBox="0 0 80 80" fill="none" xmlns="http://www.w3.org/2000/svg">
<g clip-path="url(#clip0)">
<path d="M79.2458 32.2615C79.2458 26.499 77.0565 21.0958 73.0808 17.0473C69.0832 12.9762 63.7215 10.7344 57.9834 10.7344C50.6748 10.7344 43.9625 14.3981 40.0001 20.424C36.0376 14.398 29.3253 10.7344 22.0167 10.7344C16.2786 10.7344 10.9169 12.9766 6.91926 17.0475C2.94364 21.0961 0.754272 26.4992 0.754272 32.2617C0.754272 37.6626 2.31724 40.8193 3.57317 43.356L3.70974 43.6321C8.90988 54.1666 37.9844 78.3311 39.2194 79.3547L39.9979 80L40.7783 79.3566C40.8073 79.3325 43.5497 77.0696 47.455 73.6821C51.094 76.9283 53.9875 79.3289 54.0185 79.3545L54.7971 79.9999L55.5775 79.3564C56.3414 78.7266 74.323 63.8561 77.3999 57.3624L77.4855 57.1823C78.2283 55.6196 79.2457 53.4798 79.2457 50.2246C79.2457 47.4002 78.4193 44.7268 76.8529 42.4431C77.9052 40.1868 79.2458 36.9331 79.2458 32.2615ZM75.2757 56.1316L75.1887 56.3148C72.6841 61.6007 58.3253 73.8575 54.8009 76.8175C53.5929 75.7988 51.1107 73.6825 48.2853 71.1408C44.0072 67.2925 40.5754 63.9408 38.1515 61.2588C37.4783 60.5138 36.8826 59.8204 36.3684 59.1824C36.1626 58.9272 35.97 58.681 35.7905 58.4438C35.1622 57.6135 34.6959 56.8946 34.4012 56.2973L34.3503 56.1943C33.6358 54.7482 32.8258 53.1094 32.8258 50.2251C32.8258 43.9573 37.653 39.0476 43.8153 39.0476C47.9817 39.0476 51.7754 41.3415 53.7159 45.0338L54.799 47.0946L55.8821 45.0338C57.8226 41.3413 61.6163 39.0476 65.7827 39.0476C69.2132 39.0476 72.3793 40.6049 74.4688 43.3199C75.9929 45.3002 76.7983 47.6879 76.7983 50.2251C76.7988 52.9277 75.9898 54.6299 75.2757 56.1316ZM75.1052 40.3637C75.1001 40.3587 75.0943 40.3538 75.0891 40.3487C74.9541 40.2179 74.816 40.0907 74.676 39.9663C74.6516 39.9446 74.6276 39.9226 74.603 39.901C74.4626 39.7779 74.3198 39.6581 74.1749 39.5413C74.1462 39.5184 74.1176 39.4956 74.0887 39.4726C73.9401 39.3548 73.7896 39.2396 73.6365 39.1285C73.623 39.1187 73.6095 39.1096 73.5959 39.0998C73.4476 38.9931 73.2971 38.8899 73.1449 38.7898C73.1215 38.7743 73.0982 38.7584 73.0748 38.7431C72.9187 38.6417 72.7602 38.544 72.6001 38.4495C72.5687 38.4309 72.5369 38.4124 72.5052 38.394C72.3432 38.3001 72.1798 38.209 72.014 38.1221C71.9943 38.1117 71.974 38.102 71.9543 38.0917C71.7938 38.0085 71.6316 37.9287 71.4679 37.8523C71.447 37.8424 71.4263 37.8323 71.4054 37.8226C71.2355 37.7443 71.0637 37.6704 70.8904 37.5995C70.8566 37.5856 70.8227 37.5718 70.7888 37.5582C70.6159 37.489 70.4416 37.4228 70.2657 37.3609C70.2402 37.352 70.2145 37.3435 70.1888 37.3346C70.017 37.2753 69.8437 37.2192 69.669 37.1667C69.6518 37.1615 69.6349 37.1559 69.6177 37.1509C69.4365 37.0974 69.2535 37.0484 69.0695 37.0026C69.0338 36.9939 68.9985 36.9848 68.9629 36.9762C68.7815 36.9324 68.599 36.8921 68.4151 36.856C68.3841 36.8499 68.3529 36.8445 68.3218 36.8385C68.1379 36.8037 67.953 36.7718 67.7671 36.7446C67.7566 36.7432 67.7462 36.7412 67.7359 36.7398C67.5448 36.7123 67.3526 36.6899 67.1596 36.6704C67.1232 36.6668 67.0868 36.6629 67.0506 36.6595C66.8626 36.642 66.6737 36.6284 66.484 36.6187C66.4491 36.617 66.4141 36.6157 66.3793 36.6143C66.1815 36.6059 65.9829 36.6001 65.7834 36.6001C61.394 36.6001 57.3446 38.6879 54.7995 42.1601C52.2545 38.6881 48.205 36.6001 43.8156 36.6001C43.1345 36.6001 42.4619 36.6499 41.8019 36.7482C38.9417 37.1735 36.3183 38.5042 34.2666 40.5998C31.7597 43.1602 30.3791 46.5784 30.3791 50.2246C30.3791 53.6805 31.3647 55.6752 32.1567 57.278L32.2072 57.3801C32.2539 57.4748 32.3039 57.5715 32.3567 57.6699C32.3737 57.7013 32.3927 57.7343 32.4102 57.7662C32.4475 57.8341 32.4847 57.9019 32.525 57.9718C32.548 58.0116 32.5731 58.0529 32.597 58.0933C32.6347 58.1571 32.6719 58.2205 32.7119 58.2858C32.7394 58.3307 32.7689 58.3769 32.7976 58.4224C32.837 58.4851 32.8758 58.5474 32.9172 58.6113C32.9486 58.6599 32.9823 58.7099 33.0148 58.7593C33.0564 58.8222 33.0978 58.8851 33.1416 58.9493C33.1762 59.0005 33.213 59.0529 33.2489 59.1049C33.2934 59.1691 33.3378 59.2335 33.3844 59.299C33.4225 59.3529 33.4623 59.4077 33.5019 59.4626C33.5492 59.5282 33.5966 59.5937 33.6456 59.6605C33.6872 59.7171 33.7305 59.7747 33.7734 59.8321C33.8236 59.899 33.8736 59.966 33.9255 60.0341C33.9703 60.0932 34.0167 60.1529 34.063 60.2127C34.1158 60.2811 34.1691 60.3496 34.2234 60.4191C34.2719 60.4808 34.3217 60.5433 34.3716 60.6058C34.427 60.6755 34.4831 60.7455 34.5405 60.8163C34.592 60.8801 34.6445 60.9444 34.6973 61.009C34.7561 61.0805 34.8155 61.1527 34.8758 61.2254C34.9305 61.2913 34.9859 61.3576 35.042 61.4244C35.1039 61.498 35.1667 61.5722 35.2301 61.6469C35.2878 61.7146 35.3458 61.7827 35.4047 61.8512C35.4695 61.9265 35.5353 62.0026 35.6019 62.0791C35.6628 62.1493 35.7242 62.2197 35.7867 62.2908C35.8542 62.3679 35.9233 62.4457 35.9925 62.5237C36.0564 62.5957 36.1206 62.6679 36.1859 62.741C36.2567 62.8199 36.329 62.8999 36.4014 62.98C36.4686 63.0543 36.5358 63.1285 36.6045 63.2036C36.6781 63.2843 36.7533 63.3658 36.8286 63.4474C36.899 63.524 36.9692 63.6001 37.0409 63.6774C37.1173 63.7596 37.1956 63.843 37.2736 63.9261C37.3475 64.005 37.4209 64.0836 37.4962 64.1635C37.5751 64.2471 37.6561 64.3318 37.7365 64.4163C37.8139 64.4975 37.8903 64.5783 37.9692 64.6604C38.0514 64.746 38.1358 64.8332 38.2195 64.9197C38.2997 65.0025 38.3787 65.085 38.4603 65.1688C38.5467 65.2577 38.6358 65.3482 38.7239 65.4382C38.8055 65.5215 38.8859 65.604 38.9689 65.6882C39.0619 65.7824 39.1575 65.8783 39.2523 65.9738C39.3337 66.0558 39.4139 66.1369 39.4967 66.2197C39.5955 66.3186 39.697 66.4193 39.7976 66.5193C39.9584 66.6791 40.1215 66.8407 40.2872 67.0035C40.3898 67.1046 40.4914 67.2047 40.5958 67.3071C40.6889 67.3982 40.7848 67.491 40.8794 67.583C40.9787 67.6796 41.0769 67.7755 41.1778 67.873C41.277 67.9691 41.3789 68.0666 41.4798 68.1638C41.5787 68.2589 41.6765 68.3533 41.7769 68.4494C41.8801 68.5483 41.9858 68.6486 42.0906 68.7485C42.192 68.8452 42.2929 68.9413 42.3958 69.0388C42.5006 69.1382 42.6076 69.2389 42.714 69.3394C42.82 69.4393 42.9253 69.5388 43.0326 69.6396C43.1414 69.7418 43.2522 69.845 43.3625 69.9482C43.4695 70.0482 43.5761 70.1479 43.6843 70.2486C43.7989 70.3552 43.9153 70.463 44.0315 70.5707C44.1392 70.6705 44.2468 70.7702 44.3561 70.8708C44.4734 70.9789 44.5923 71.0883 44.7112 71.1975C44.8228 71.3002 44.9345 71.4027 45.0476 71.5061C45.1665 71.6149 45.287 71.7247 45.4075 71.8346C45.4795 71.9003 45.5503 71.965 45.6229 72.0313C43.0726 74.2405 41.0486 75.9444 40.0025 76.8185C35.2644 72.8368 10.4191 51.6959 5.90395 42.5485L5.76614 42.2699C4.5638 39.8418 3.2013 37.0898 3.2013 32.2614C3.2013 21.5622 11.466 13.1811 22.0167 13.1811C29.1289 13.1811 35.6047 17.0966 38.917 23.3992L40.0001 25.4601L41.0833 23.3992C44.3956 17.0966 50.8714 13.1811 57.9835 13.1811C68.5343 13.1811 76.799 21.5622 76.799 32.2614C76.7988 35.7779 75.9637 38.3618 75.1052 40.3637Z" fill="white"/>
<path d="M23.1131 0H20.6661V7.61795H23.1131V0Z" fill="white"/>
<path d="M32.4592 2.22225L29.2613 9.13616L31.4822 10.1634L34.6802 3.24951L32.4592 2.22225Z" fill="white"/>
<path d="M11.3186 2.22105L9.09772 3.24831L12.2957 10.1622L14.5166 9.13497L11.3186 2.22105Z" fill="white"/>
<path d="M8.42359 33.5975C8.42359 33.4825 8.42468 33.3677 8.42718 33.253L5.98063 33.2022C5.97781 33.3338 5.97656 33.4653 5.97656 33.5975C5.97656 35.2383 6.14344 36.7336 6.48687 38.1687L8.86671 37.5992C8.56843 36.353 8.42359 35.0439 8.42359 33.5975Z" fill="white"/>
<path d="M11.7391 20.1483C8.80821 22.9034 6.8443 26.6278 6.20868 30.6356L8.62555 31.0189C9.17649 27.5443 10.8774 24.317 13.4151 21.9314L11.7391 20.1483Z" fill="white"/>
<path d="M40.6958 41.6932C37.3316 43.2534 35.1313 46.5656 34.9538 50.3374L37.398 50.4524C37.5324 47.5942 39.1907 45.0886 41.7253 43.9132L40.6958 41.6932Z" fill="white"/>
</g>
<defs>
<clipPath id="clip0">
<rect width="80" height="80" fill="white"/>
</clipPath>
</defs>
</svg>

<svg width="80" height="80" fill="none" xmlns="http://www.w3.org/2000/svg"><g clip-path="url(#clip0)" fill="#fff"><path d="M79.246 32.261c0-5.762-2.19-11.165-6.165-15.214-3.998-4.07-9.36-6.313-15.098-6.313A21.474 21.474 0 0040 20.424a21.474 21.474 0 00-17.983-9.69c-5.738 0-11.1 2.243-15.098 6.313C2.944 21.098.754 26.5.754 32.263c0 5.4 1.563 8.557 2.82 11.094l.136.276c5.2 10.535 34.274 34.7 35.51 35.723l.778.645.78-.643c.03-.025 2.772-2.287 6.677-5.675a267.097 267.097 0 006.564 5.672l.778.646.78-.644c.764-.63 18.746-15.5 21.823-21.994l.085-.18c.743-1.562 1.76-3.702 1.76-6.957 0-2.825-.826-5.498-2.392-7.782 1.052-2.256 2.393-5.51 2.393-10.181zm-3.97 23.87l-.087.184C72.684 61.6 58.325 73.858 54.8 76.817a279.255 279.255 0 01-6.516-5.676c-4.278-3.849-7.71-7.2-10.133-9.882a48.924 48.924 0 01-1.784-2.077 30.454 30.454 0 01-.578-.738c-.628-.83-1.094-1.55-1.389-2.147l-.05-.103c-.715-1.446-1.525-3.085-1.525-5.969 0-6.268 4.827-11.177 10.99-11.177 4.166 0 7.96 2.294 9.9 5.986l1.083 2.06 1.083-2.06a11.157 11.157 0 019.9-5.986c3.431 0 6.597 1.557 8.687 4.272 1.524 1.98 2.33 4.368 2.33 6.905 0 2.703-.81 4.405-1.523 5.907zm-.17-15.767l-.017-.015a13.56 13.56 0 00-.413-.383l-.073-.065a13.504 13.504 0 00-.966-.773l-.041-.028c-.148-.107-.299-.21-.451-.31l-.07-.047a13.027 13.027 0 00-1.061-.62l-.06-.031a12.17 12.17 0 00-.486-.24l-.063-.03a12.898 12.898 0 00-1.14-.461l-.076-.026c-.172-.06-.345-.116-.52-.168l-.051-.016a13.17 13.17 0 00-.548-.148l-.107-.027a13.015 13.015 0 00-.548-.12l-.093-.017a13.48 13.48 0 00-.555-.094l-.031-.005c-.191-.028-.383-.05-.576-.07l-.11-.01a13.614 13.614 0 00-.566-.041l-.105-.005A13.589 13.589 0 0054.8 42.16a13.59 13.59 0 00-10.983-5.56c-.681 0-1.354.05-2.014.148a13.215 13.215 0 00-7.535 3.852c-2.507 2.56-3.888 5.978-3.888 9.625 0 3.456.986 5.45 1.778 7.053l.05.102c.047.095.097.191.15.29l.053.096.115.206.072.121.115.193c.027.045.057.09.086.136l.12.19c.03.048.064.098.097.147.041.063.083.126.127.19.034.052.071.104.107.156l.135.194.118.164.144.197.127.172.152.202.138.179a44.71 44.71 0 00.477.603 40.865 40.865 0 00.69.83l.175.205a52.564 52.564 0 00.382.44l.206.233a89.696 89.696 0 00.611.68 56.89 56.89 0 00.437.473l.233.25.222.236.24.253.233.244.25.26.241.249.264.27.245.25.283.285.245.246.3.3a120.416 120.416 0 00.799.787l.283.276.299.29c.099.096.2.194.302.29l.297.286c.103.1.209.2.314.3l.305.29.318.3c.106.1.211.2.319.3.108.103.22.206.33.31l.321.3.348.322a130.61 130.61 0 001.016.935l.36.329.215.196a424.385 424.385 0 01-5.62 4.787c-4.739-3.981-29.584-25.122-34.099-34.27l-.138-.278c-1.202-2.428-2.565-5.18-2.565-10.009 0-10.699 8.265-19.08 18.816-19.08a19.046 19.046 0 0116.9 10.218L40 25.46l1.083-2.06a19.046 19.046 0 0116.9-10.219c10.551 0 18.816 8.381 18.816 19.08 0 3.517-.835 6.1-1.694 8.103zM23.113 0h-2.447v7.618h2.447V0zm9.347 2.222l-3.2 6.914 2.221 1.027L34.68 3.25l-2.22-1.028zm-21.141-.001L9.098 3.248l3.198 6.914 2.22-1.027-3.197-6.914z"/><path d="M8.424 33.597c0-.114 0-.23.003-.344l-2.446-.05c-.003.13-.004.262-.004.394 0 1.641.166 3.137.51 4.572l2.38-.57c-.299-1.246-.443-2.555-.443-4.002zm3.316-13.449c-2.932 2.755-4.896 6.48-5.531 10.488l2.417.383a15.94 15.94 0 014.79-9.088l-1.677-1.783zm28.956 21.545c-3.364 1.56-5.565 4.873-5.742 8.644l2.444.115c.134-2.858 1.793-5.363 4.327-6.539l-1.03-2.22z"/></g><defs><clipPath id="clip0"><path fill="#fff" d="M0 0h80v80H0z"/></clipPath></defs></svg>
